images/logo.svg

<?xml version="1.0" encoding="UTF-8" standalone="no"?>
<!-- Created with Inkscape (http://www.inkscape.org/) -->

<svg
   xmlns:dc="http://purl.org/dc/elements/1.1/"
   xmlns:cc="http://creativecommons.org/ns#"
   xmlns:rdf="http://www.w3.org/1999/02/22-rdf-syntax-ns#"
   xmlns:svg="http://www.w3.org/2000/svg"
   xmlns="http://www.w3.org/2000/svg"
   xmlns:sodipodi="http://sodipodi.sourceforge.net/DTD/sodipodi-0.dtd"
   xmlns:inkscape="http://www.inkscape.org/namespaces/inkscape"
   width="131.5809mm"
   height="52.143673mm"
   viewBox="0 0 466.23154 184.76104"
   id="svg5056"
   version="1.1"
   inkscape:version="0.91 r"
   sodipodi:docname="logo.svg">
  <sodipodi:namedview
     id="base"
     pagecolor="#ffffff"
     bordercolor="#666666"
     borderopacity="1.0"
     inkscape:pageopacity="0.0"
     inkscape:pageshadow="2"
     inkscape:zoom="0.98994949"
     inkscape:cx="420.93312"
     inkscape:cy="82.802145"
     inkscape:document-units="px"
     inkscape:current-layer="layer1"
     showgrid="false"
     inkscape:window-width="1855"
     inkscape:window-height="1056"
     inkscape:window-x="193"
     inkscape:window-y="1104"
     inkscape:window-maximized="1"
     fit-margin-top="5"
     fit-margin-left="5"
     fit-margin-right="5"
     fit-margin-bottom="5" />
  <defs
     id="defs5058" />
  <metadata
     id="metadata5061">
    <rdf:RDF>
      <cc:Work
         rdf:about="">
        <dc:format>image/svg+xml</dc:format>
        <dc:type
           rdf:resource="http://purl.org/dc/dcmitype/StillImage" />
        <dc:title></dc:title>
      </cc:Work>
    </rdf:RDF>
  </metadata>
  <g
     transform="translate(99.002245,-268.63706)"
     inkscape:label="Layer 1"
     inkscape:groupmode="layer"
     id="layer1">
    <path
       style="fill:none;fill-rule:evenodd;stroke:#ff0000;stroke-width:1px;stroke-linecap:butt;stroke-linejoin:miter;stroke-opacity:1"
       d="m -80.812204,363.43817 c 37.860468,6.23996 22.418283,73.15556 65.659916,71.72082 43.241633,-1.43474 77.044299,-62.75008 117.177698,-62.8325 l 247.48737,0"
       id="path5604"
       inkscape:connector-curvature="0"
       sodipodi:nodetypes="czcc" />
    <path
       style="fill:none;fill-rule:evenodd;stroke:#0000ff;stroke-width:1px;stroke-linecap:butt;stroke-linejoin:miter;stroke-opacity:1"
       d="m -80.812204,357.58031 c 18.278148,-53.89012 19.410293,-61.9517 30.355775,-62.85231 10.945482,-0.9006 14.820522,56.2528 33.283836,57.80153 24.5636608,2.06044 22.8053805,-64.44043 60.609153,-65.65991 31.314734,-1.01015 20.203051,65.45687 58.58885,65.45687 l 247.48737,0"
       id="path5604-0"
       inkscape:connector-curvature="0"
       sodipodi:nodetypes="czsssc" />
    <g
       id="g7099">
      <path
         id="path7101"
         style="stroke-linejoin:miter;opacity:1.0;stroke-opacity:1.0;fill-rule:evenodd;stroke:#ff0000;stroke-linecap:butt;stroke-width:1.0;fill:none"
         d="M-80.812204 363.43817C-58.9067897906 367.048503302 -54.8448658628 390.970493374 -46.9363082637 410.213715262C-41.1760217567 424.229731458 -33.3750574732 435.763614166 -15.152288 435.15899C-10.1541897033 434.993155108 -5.2821957022 434.027317324 -0.511954169741 432.448502117C22.8035074769 424.731742876 43.6881521869 402.371251388 64.9854096904 387.204968988C77.0287409586 378.628627034 89.2040159061 372.35282067 102.02541 372.32649C102.02541 372.32649 117.749324934 372.32649 141.270416802 372.32649C211.064796611 372.32649 349.51278 372.32649 349.51278 372.32649" />
      <path
         id="path7103"
         style="stroke-linejoin:miter;opacity:1.0;stroke-opacity:1.0;fill-rule:evenodd;stroke:#d4002a;stroke-linecap:butt;stroke-width:1.0;fill:none"
         d="M-80.812204 362.46186C-59.5113341589 356.488784418 -55.937706719 375.080179478 -47.5229950531 390.966096052C-41.4028383248 402.537506006 -34.1990269345 417.105798554 -17.5599642757 419.448676698C-12.839542839 420.398192022 -8.11465267333 420.37299278 -3.28872730812 419.12867343C20.2347675307 413.041447396 37.3455914058 383.324226156 61.393934742 370.482410823C74.189005224 363.246460688 85.1180544143 361.070315461 96.8727543124 363.947014642C97.8270542574 366.531728598 112.112991235 368.993156667 134.729582335 368.993156667C192.891565509 368.993156667 349.51278 368.993156667 349.51278 368.993156667" />
      <path
         id="path7105"
         style="stroke-linejoin:miter;opacity:1.0;stroke-opacity:1.0;fill-rule:evenodd;stroke:#aa0055;stroke-linecap:butt;stroke-width:1.0;fill:none"
         d="M-80.812204 361.48555C-60.1158785271 345.929065535 -57.0305475752 359.189865583 -48.1096818425 371.718476842C-41.6296548928 380.845280553 -35.0229963958 398.447982942 -19.9676405514 403.738363396C-15.5248959748 405.803228937 -10.9471096445 406.718668235 -6.06550044649 405.808844744C17.6660275846 401.351151917 31.0030306246 364.277200925 57.8024597936 353.759852659C71.3492694895 347.864294343 81.0320929225 349.787810251 91.7200986248 355.567539283C93.6286985148 360.736967197 106.476657536 365.659823333 128.188747868 365.659823333C174.718334407 365.659823333 349.51278 365.659823333 349.51278 365.659823333" />
      <path
         id="path7107"
         style="stroke-linejoin:miter;opacity:1.0;stroke-opacity:1.0;fill-rule:evenodd;stroke:#7f007f;stroke-linecap:butt;stroke-width:1.0;fill:none"
         d="M-80.812204 360.50924C-60.7204228953 335.369346651 -58.1233884314 343.299551687 -48.6963686318 352.470857631C-41.8564714608 359.1530551 -35.8469658572 379.79016733 -22.3753168271 388.028050095C-18.2102491105 391.208265852 -13.7795666156 393.06434369 -8.84227358487 392.489016058C15.0972876384 389.660856438 24.6604698435 345.230175694 54.2109848452 337.037294494C68.5095337549 332.482127998 76.9461314307 338.505305041 86.5674429372 347.188063925C89.4303427722 354.942205795 100.840323837 362.32649 121.647913401 362.32649C156.545103306 362.32649 349.51278 362.32649 349.51278 362.32649" />
      <path
         id="path7109"
         style="stroke-linejoin:miter;opacity:1.0;stroke-opacity:1.0;fill-rule:evenodd;stroke:#5500aa;stroke-linecap:butt;stroke-width:1.0;fill:none"
         d="M-80.812204 359.53293C-61.3249672635 324.809627767 -59.2162292876 327.409237791 -49.2830554212 333.223238421C-42.0832880289 337.460829647 -36.6709353185 361.132351718 -24.7829931028 372.317736793C-20.8956022463 376.613302767 -16.6120235867 379.410019145 -11.6190467232 379.169187372C12.5285476923 377.970560959 18.3179090623 326.183150463 50.6195098968 320.314736329C65.6697980203 317.099961653 72.8601699389 327.222799831 81.4147872496 338.808588566C85.2319870295 349.147444394 95.2039901376 358.993156667 115.107078934 358.993156667C138.371872204 358.993156667 349.51278 358.993156667 349.51278 358.993156667" />
      <path
         id="path7111"
         style="stroke-linejoin:miter;opacity:1.0;stroke-opacity:1.0;fill-rule:evenodd;stroke:#2a00d4;stroke-linecap:butt;stroke-width:1.0;fill:none"
         d="M-80.812204 358.55662C-61.9295116318 314.249908884 -60.3090701438 311.518923896 -49.8697422106 313.97561921C-42.3101045969 315.768604194 -37.4949047798 342.474536106 -27.1906693785 356.607423491C-23.580955382 362.018339681 -19.4444805579 365.7556946 -14.3958198616 365.849358686C9.95980774614 366.280265479 11.9753482812 307.136125231 47.0280349484 303.592178165C62.8300622857 301.717795308 68.7742084471 315.940294622 76.2621315619 330.429113208C81.0336312869 343.352682992 89.5676564385 355.659823333 108.566244467 355.659823333C120.198641102 355.659823333 349.51278 355.659823333 349.51278 355.659823333" />
      <path
         id="path7113"
         style="stroke-linejoin:miter;opacity:1.0;stroke-opacity:1.0;fill-rule:evenodd;stroke:#0000ff;stroke-linecap:butt;stroke-width:1.0;fill:none"
         d="M-80.812204 357.58031C-62.534056 303.69019 -61.401911 295.62861 -50.456429 294.728C-42.536921165 294.076378741 -38.3188742411 323.816720494 -29.5983456543 340.897110189C-26.2663085178 347.423376596 -22.276937529 352.101370055 -17.172593 352.52953C7.3910678 354.58997 5.6327875 288.0891 43.43656 286.86962C59.9903265511 286.335628963 64.6882469553 304.657789412 71.1094758743 322.04963785C76.8352755443 337.557921591 83.9313227394 352.32649 102.02541 352.32649C102.02541 352.32649 349.51278 352.32649 349.51278 352.32649" />
    </g>
  </g>
</svg>

<?xml version="1.0" encoding="UTF-8" standalone="no"?>
<!-- Created with Inkscape (http://www.inkscape.org/) -->

<svg
   xmlns:dc="http://purl.org/dc/elements/1.1/"
   xmlns:cc="http://creativecommons.org/ns#"
   xmlns:rdf="http://www.w3.org/1999/02/22-rdf-syntax-ns#"
   xmlns:svg="http://www.w3.org/2000/svg"
   xmlns="http://www.w3.org/2000/svg"
   xmlns:sodipodi="http://sodipodi.sourceforge.net/DTD/sodipodi-0.dtd"
   xmlns:inkscape="http://www.inkscape.org/namespaces/inkscape"
   width="1250"
   height="700"
   viewBox="0 0 1250 699.99995"
   id="svg5056"
   version="1.1"
   inkscape:version="0.91 r"
   sodipodi:docname="logo.svg"
   inkscape:export-filename="/home/matthias/projects/homepage/MMesch.github.io/images/logo.png"
   inkscape:export-xdpi="100"
   inkscape:export-ydpi="100">
  <sodipodi:namedview
     id="base"
     pagecolor="#ffffff"
     bordercolor="#666666"
     borderopacity="1.0"
     inkscape:pageopacity="0.0"
     inkscape:pageshadow="2"
     inkscape:zoom="0.49497475"
     inkscape:cx="586.84387"
     inkscape:cy="146.08851"
     inkscape:document-units="px"
     inkscape:current-layer="layer1"
     showgrid="false"
     inkscape:window-width="1855"
     inkscape:window-height="1056"
     inkscape:window-x="193"
     inkscape:window-y="1104"
     inkscape:window-maximized="1"
     fit-margin-top="5"
     fit-margin-left="5"
     fit-margin-right="5"
     fit-margin-bottom="5"
     units="px" />
  <defs
     id="defs5058" />
  <metadata
     id="metadata5061">
    <rdf:RDF>
      <cc:Work
         rdf:about="">
        <dc:format>image/svg+xml</dc:format>
        <dc:type
           rdf:resource="http://purl.org/dc/dcmitype/StillImage" />
        <dc:title></dc:title>
      </cc:Work>
    </rdf:RDF>
  </metadata>
  <g
     transform="translate(86.285709,259.31844)"
     inkscape:label="Layer 1"
     inkscape:groupmode="layer"
     id="layer1">
    <g
       id="g7099"
       transform="matrix(2.7586283,0,0,2.7586283,169.21532,-917.72478)">
      <path
         id="path7101"
         style="opacity:1;fill:none;fill-rule:evenodd;stroke:#ff0000;stroke-width:1;stroke-linecap:butt;stroke-linejoin:miter;stroke-opacity:1"
         d="m -80.812204,363.43817 c 21.905414,3.61033 25.967338,27.53232 33.875896,46.77555 5.760286,14.01601 13.561251,25.54989 31.78402,24.94527 4.998098,-0.16583 9.8700923,-1.13167 14.64033383,-2.71049 C 22.803507,424.73174 43.688152,402.37125 64.98541,387.20497 c 12.043331,-8.57634 24.218606,-14.85215 37.04,-14.87848 0,0 15.72391,0 39.24501,0 69.79438,0 208.24236,0 208.24236,0"
         inkscape:connector-curvature="0" />
      <path
         id="path7103"
         style="opacity:1;fill:none;fill-rule:evenodd;stroke:#d4002a;stroke-width:1;stroke-linecap:butt;stroke-linejoin:miter;stroke-opacity:1"
         d="m -80.812204,362.46186 c 21.30087,-5.97308 24.874497,12.61832 33.289209,28.50424 6.120157,11.57141 13.323968,26.1397 29.963031,28.48258 4.720421,0.94951 9.4453113,0.92431 14.2712367,-0.32001 23.5234953,-6.08722 40.6343183,-35.80444 64.6826623,-48.64626 12.79507,-7.23595 23.724119,-9.41209 35.478819,-6.5354 0.9543,2.58472 15.240236,5.04615 37.856826,5.04615 58.16199,0 214.7832,0 214.7832,0"
         inkscape:connector-curvature="0" />
      <path
         id="path7105"
         style="opacity:1;fill:none;fill-rule:evenodd;stroke:#aa0055;stroke-width:1;stroke-linecap:butt;stroke-linejoin:miter;stroke-opacity:1"
         d="m -80.812204,361.48555 c 20.696325,-15.55648 23.781656,-2.29568 32.702522,10.23293 6.480027,9.1268 13.086686,26.7295 28.142041,32.01988 4.442745,2.06487 9.020531,2.98031 13.9021406,2.07048 23.7315284,-4.45769 37.0685314,-41.53164 63.8679604,-52.04899 13.546809,-5.89556 23.229633,-3.97204 33.917639,1.80769 1.9086,5.16943 14.756561,10.09228 36.468651,10.09228 46.52958,0 221.32403,0 221.32403,0"
         inkscape:connector-curvature="0" />
      <path
         id="path7107"
         style="opacity:1;fill:none;fill-rule:evenodd;stroke:#7f007f;stroke-width:1;stroke-linecap:butt;stroke-linejoin:miter;stroke-opacity:1"
         d="m -80.812204,360.50924 c 20.091781,-25.13989 22.688816,-17.20969 32.115835,-8.03838 6.839898,6.6822 12.849403,27.31931 26.321052,35.55719 4.165068,3.18022 8.59575,5.03629 13.5330434,4.46097 23.9395616,-2.82816 33.5027436,-47.25884 63.0532586,-55.45173 14.298549,-4.55516 22.735146,1.46802 32.356458,10.15077 2.8629,7.75415 14.272877,15.13843 35.080467,15.13843 34.89719,0 227.86487,0 227.86487,0"
         inkscape:connector-curvature="0" />
      <path
         id="path7109"
         style="opacity:1;fill:none;fill-rule:evenodd;stroke:#5500aa;stroke-width:1;stroke-linecap:butt;stroke-linejoin:miter;stroke-opacity:1"
         d="m -80.812204,359.53293 c 19.487237,-34.7233 21.595975,-32.12369 31.529149,-26.30969 7.199767,4.23759 12.61212,27.90911 24.500062,39.0945 3.887391,4.29556 8.170969,7.09228 13.163946,6.85145 24.147595,-1.19863 29.936956,-52.98604 62.238557,-58.85445 15.050288,-3.21478 22.24066,6.90806 30.795277,18.49385 3.8172,10.33885 13.789203,20.18457 33.692293,20.18457 23.26479,0 234.4057,0 234.4057,0"
         inkscape:connector-curvature="0" />
      <path
         id="path7111"
         style="opacity:1;fill:none;fill-rule:evenodd;stroke:#2a00d4;stroke-width:1;stroke-linecap:butt;stroke-linejoin:miter;stroke-opacity:1"
         d="m -80.812204,358.55662 c 18.882692,-44.30671 20.503134,-47.0377 30.942462,-44.581 7.559637,1.79298 12.374837,28.49892 22.679073,42.6318 3.609714,5.41092 7.746188,9.14827 12.794849,9.24194 24.3556277,0.43091 26.371168,-58.71323 61.423855,-62.25718 15.802027,-1.87438 21.746173,12.34811 29.234097,26.83693 4.771499,12.92357 13.305524,25.23071 32.304108,25.23071 11.6324,0 240.94654,0 240.94654,0"
         inkscape:connector-curvature="0" />
      <path
         id="path7113"
         style="opacity:1;fill:none;fill-rule:evenodd;stroke:#0000ff;stroke-width:1;stroke-linecap:butt;stroke-linejoin:miter;stroke-opacity:1"
         d="m -80.812204,357.58031 c 18.278148,-53.89012 19.410293,-61.9517 30.355775,-62.85231 7.919508,-0.65162 12.137555,29.08872 20.858083,46.16911 3.332037,6.52627 7.321408,11.20426 12.425753,11.63242 24.5636608,2.06044 22.8053805,-64.44043 60.609153,-65.65991 16.553767,-0.53399 21.251687,17.78817 27.672916,35.18002 5.7258,15.50828 12.821847,30.27685 30.915934,30.27685 0,0 247.48737,0 247.48737,0"
         inkscape:connector-curvature="0" />
    </g>
  </g>
</svg>
